X:1
T:Lo! The Golden Fields Are Smiling
T:Lo! The Golden Fields Are Smiling
T:William James Kirkpatrick
T:Frances Jane (Fanny) Crosby, 1882
T:Public Domain Courtesy of the Cyber Hymnal™
T:Public Domain Courtesy of the Cyber Hymnal™
C:William James Kirkpatrick
Z:Public Domain
Z:Courtesy of the Cyber Hymnal™
%%score ( 1 2 ) ( 3 4 )
L:1/8
Q:1/4=100
M:4/4
K:F
V:1 treble 
V:2 treble 
V:3 bass 
V:4 bass 
V:1
 [Fc]3 [Fd] [Fc][CF] [FA]>[CG] | [CF]4 C2 z2 | [CF]3 [CG] [FA][Fc] F>[FA] | [EG]6 z2 | %4
w: 1.~Lo! the gold- en fields are|smil- ing,|Where- fore i- dle shouldst thou|be?|
w: 2.~Take the balm of con- so-|la- tion|That so oft has cheered thy|heart;|
w: 3.~Go and ga- ther souls for|Je- sus;|Pre- cious souls thy love may|win;|
w: 4.~Go, then, work, the Mas- ter|call- eth;|Go, no long- er i- dle|be;|
 [Fc]3 [Fd] [Fc][CF] [FA]>[CG] | [DF]4 [B,D]2 z2 | [A,C]3 [CF] [CE][CF] [CA]>[CG] | [CF]6 z2 | %8
w: Great the har- vest, few the|work- ers,|And the Lord hath need of|thee.|
w: Let some wear- y bro- ther|toil- er,|In thy com- fort share a|part.|
w: Lead them to the door of|mer- cy;|Tell them how to en- ter|in.|
w: Waste no more thy pre- cious|mo- ments,|For the Lord hath need of|Thee.|
 [EG]3 [FA] [GB][EG][CE][Ed] | [Fc]4 [FA]2 z2 | [GB]3 [FA] [EG][Bd] [Ac]>[GB] | [FA]6 z2 | %12
w: Go and work, the time is|wan- ing,|Let thy ear- nest heart re-|ply|
w: Go and lift the heav- y|bur- den,|He has strug- gled long to|bear,|
w: Go and ga- ther souls for|Je- sus;|Work while strength and breath re-|main;|
w: Once He gave His life thy|ran- som,|That thy soul with Him might|live;|
 [Fc]3 [Fd] [Fc][FA] [CF]>[A,C] | [B,D]4 [DB]2 z2 | [CA]3 [CF] [FA][EG]D[CE] | [CF]6 z2 || %16
w: To the call so oft re-|peat- ed,|“Bless- èd Mas- ter, here am|I.”|
w: Go, and kneel- ing down be-|side him,|Blend thy faith with his in|prayer.|
w: What are years of con- stant|la- bor|To the joy thou yet shalt|gain?|
w: Now the ser- vice He de-|mand- eth|Can thy heart re- fuse to|give?|
"^Refrain" [Fc]2 z [Fc] [Fc]2 z [Fc] | [Fd][Fc][GB][FA] [Fc]2 [EB]2 | [EG]3 [FA] [GB]2 [Bd]2 | %19
w: |||
w: |||
w: Hark! the song, the|song of bu- sy work- ers,|In the fields so|
w: |||
 [Ac]3 [GB] [FA]4 | [Fc]3 [Fd] [Fc][FA] [CF]>[A,C] | [B,D]4 [DB]2 z2 | [CA]3 [CF] [FA][EG]D[CE] | %23
w: ||||
w: ||||
w: fair to see;|Go and fill thy place a-|mong them,|For the Lord hath need of|
w: ||||
 [CF]6 z2 |] %24
w: |
w: |
w: thee.|
w: |
V:2
 x8 | x4 C2 x2 | x6 F3/2 x/ | x8 | x8 | x8 | x8 | x8 | x8 | x8 | x8 | x8 | x8 | x8 | x6 D x | x8 || %16
 x8 | x8 | x8 | x8 | x8 | x8 | x6 D x | x8 |] %24
V:3
 [F,A,]3 [F,B,] [F,A,][F,A,] [F,C]>[F,B,] | [F,A,]4 [F,A,]2 z2 | %2
 [F,A,]3 [F,B,] [F,C][F,A,] [A,C]>[F,C] | [C,C]6 z2 | [F,A,]3 [F,B,] [F,A,][F,A,] [F,C]>[F,A,] | %5
 [B,,B,]4 [B,,F,]2 z2 | [C,F,]3 [C,A,] [C,G,][C,A,] [C,C]>[C,B,] | [F,,F,A,]6 z2 | %8
 [C,C]3 [C,C] [C,C][C,C][C,G,][C,B,] | [F,A,]4 [F,C]2 z2 | [C,C]3 [C,C] [C,C][C,C] [C,C]>[C,C] | %11
 [F,C]6 z2 | [F,A,]3 [F,B,] [F,A,][F,C] [F,A,]>F, | [B,,F,]4 [B,,F,]2 z2 | %14
 [C,F,]3 [C,A,] [C,C][C,C][C,B,][C,B,] | [F,,F,A,]6 z2 || [F,A,]2 z [F,A,] [F,A,]2 z [F,A,] | %17
 [F,B,][F,A,][F,C][F,C] [C,A,]2 [C,G,]2 | [C,C]3 [C,C] [C,C]2 [C,C]2 | [C,C]3 [C,C] [F,C]4 | %20
 [F,A,]3 [F,B,] [F,A,][F,C] [F,A,]>F, | [B,,F,]4 [B,,F,]2 z2 | %22
 [C,F,]3 [C,A,] [C,C][C,C][C,B,][C,B,] | [F,,F,A,]6 z2 |] %24
V:4
 x8 | x8 | x8 | x8 | x8 | x8 | x8 | x8 | x8 | x8 | x8 | x8 | x15/2 F,/ | x8 | x8 | x8 || x8 | x8 | %18
 x8 | x8 | x15/2 F,/ | x8 | x8 | x8 |] %24

